X: 32896
T: Post Road To Boston, The
R: reel
M: 4/4
K: Dmajor
|:"A"EAAE "Bm"FA"G"Bd|"D"faa^g "D"afdf|"Em"gfed "Bm"(3Bcd ef|"Em"gfed "Bm"BAFD|
"A"EAAE "Bm"FA"G"Bd|"D"faa^g "D"afdf|"Em"gfed "Bm"Bcde|"A7"(3fga eg "D"fdd2:|
|:"Bm"BABc "D"defg|"A"aA(3AAA "D"afea|"Bm"bB(3BBB "Bm"bafb|"D"afdf "A7"(3efe dc|
"Bm"BABc "D"defg|"A"aA(3AAA "D"afea|"Bm"bB(3BBB "Bm"bafe|"A7"(3fga eg "D"fdd2:|

